kora-light/actions/scalable/view-object-histogram-linear.svg

<svg xmlns="http://www.w3.org/2000/svg" style="fill-rule:evenodd;clip-rule:evenodd;stroke-linejoin:round;stroke-miterlimit:2" width="100%" height="100%" version="1.1" viewBox="0 0 16 16" xml:space="preserve">
 <defs>
  <style id="current-color-scheme" type="text/css">
   .ColorScheme-Text { color:#444444; } .ColorScheme-Highlight { color:#4285f4; } .ColorScheme-NeutralText { color:#ff9800; } .ColorScheme-PositiveText { color:#4caf50; } .ColorScheme-NegativeText { color:#f44336; }
  </style>
 </defs>
 <path style="fill:currentColor;fill-opacity:0.3;" class="ColorScheme-Text" d="M1,1l0,14l14,0l0,-6l-1,0l0,2l-1,0l0,1l-1,0l0,-2l-1,0l0,1l-1,0l0,-1l-1,0l0,-4l-1,0l0,-3l-1,0l0,-2l-1,0l0,3l-1,0l0,2l-1,0l0,3l-1,0l0,-5l-1,0l0,-3l-1,0Z"/>
 <path style="fill:currentColor;" class="ColorScheme-Text" d="M1,1l0,14l14,0l0,-6l-1,0l0,2l-1,0l0,1l-1,0l0,-2l-1,0l0,1l-1,0l0,-1l-1,0l0,-4l-1,0l0,-3l-1,0l0,-2l-1,0l0,3l-1,0l0,2l-1,0l0,3l-1,0l0,-5l-1,0l0,-3l-1,0Zm1,13l12,0l0,-1l-3,0l0,-1l-2,0l0,-1l-1,0l0,-4l-1,0l0,-2l-1,0l0,2l-1,0l0,3l-3,0l0,4Z"/>
</svg>

<svg xmlns="http://www.w3.org/2000/svg" width="16" height="16" viewBox="0 0 16 16">
 <defs>
  <style id="current-color-scheme" type="text/css">
   .ColorScheme-Text { color:#444444; } .ColorScheme-Highlight { color:#4285f4; }
  </style>
 </defs>
 <path style="fill:currentColor" class="ColorScheme-Text" d="M 1 1 L 1 13 L 1 15 L 3 15 L 15 15 L 15 13 L 15 9 L 14 9 L 14 11 L 13 11 L 13 12 L 12 12 L 12 11 L 12 10 L 11 10 L 11 11 L 10 11 L 10 10 L 9 10 L 9 6 L 8 6 L 8 3 L 7 3 L 7 1 L 6 1 L 6 4 L 5 4 L 5 6 L 4 6 L 4 9 L 3 9 L 3 4 L 2 4 L 2 1 L 1 1 z"/>
</svg>
